symbolic/64x64/apps/dvdisaster.svg

<svg width="64" height="64" version="1.1" xmlns="http://www.w3.org/2000/svg">
 <path d="m32 5c-15.512 0-28 12.488-28 28s12.488 28 28 28 28-12.488 28-28-12.488-28-28-28zm0 16a12 12 0 0 1 12 12 12 12 0 0 1-12 12 12 12 0 0 1-12-12 12 12 0 0 1 12-12z" style="opacity:.2"/>
 <path d="m32 17a15 15 0 0 0-15 15 15 15 0 0 0 15 15 15 15 0 0 0 15-15 15 15 0 0 0-15-15zm0 9c3.3138 0 6 2.6862 6 6s-2.6862 6-6 6-6-2.6862-6-6 2.6862-6 6-6z" style="fill:#858585"/>
 <path d="m32 4c-15.512 0-28 12.488-28 28s12.488 28 28 28 28-12.488 28-28-12.488-28-28-28zm0 16a12 12 0 0 1 12 12 12 12 0 0 1-12 12 12 12 0 0 1-12-12 12 12 0 0 1 12-12z" style="fill:#e4e4e4"/>
 <path d="M 32,4 C 16.488,4 4,16.488 4,32 4,32.11345 4.01128,32.224113 4.017578,32.335938 4.3691213,17.134181 16.710728,5 32,5 47.289272,5 59.630879,17.134181 59.982422,32.335938 59.98872,32.224113 60,32.11345 60,32 60,16.488 47.512,4 32,4 Z M 20.050781,32.996094 A 12,12 0 0 0 20,34 12,12 0 0 0 20.02539,34.5 12,12 0 0 1 20.05078,33.996094 12,12 0 0 0 32,45 12,12 0 0 0 43.949219,34.003906 12,12 0 0 1 43.978516,34.595703 12,12 0 0 0 44,34 12,12 0 0 0 43.949219,33.003906 12,12 0 0 1 32,44 12,12 0 0 1 20.050781,32.996094 Z" style="fill:#ffffff;opacity:.2"/>
 <path d="M 63.958,45.848 A 16,16 0 0 1 48,61 16,16 0 0 1 32.042,46.152 16,16 0 0 0 32,47 16,16 0 0 0 48,63 16,16 0 0 0 64,47 16,16 0 0 0 63.95704,45.84766 Z" style="opacity:.2"/>
 <circle cx="48" cy="46" r="16" style="fill:#4456f3"/>
 <g transform="matrix(2,0,0,-2,7,88)" style="fill:#ffffff">
  <rect x="19" y="20" width="3" height="6"/>
  <rect x="19" y="16" width="3" height="3"/>
 </g>
</svg>

<svg width="64" height="64" xmlns="http://www.w3.org/2000/svg"><path d="M32 5C16.488 5 4 17.488 4 33s12.488 28 28 28 28-12.488 28-28S47.512 5 32 5zm0 16a12 12 0 0 1 12 12 12 12 0 0 1-12 12 12 12 0 0 1-12-12 12 12 0 0 1 12-12z" style="opacity:.2"/><path d="M32 17a15 15 0 0 0-15 15 15 15 0 0 0 15 15 15 15 0 0 0 15-15 15 15 0 0 0-15-15zm0 9a6 6 0 1 1 0 12 6 6 0 0 1 0-12z" style="fill:#858585"/><path d="M32 4C16.488 4 4 16.488 4 32s12.488 28 28 28 28-12.488 28-28S47.512 4 32 4zm0 16a12 12 0 0 1 12 12 12 12 0 0 1-12 12 12 12 0 0 1-12-12 12 12 0 0 1 12-12z" style="fill:#e4e4e4"/><path d="M32 4C16.488 4 4 16.488 4 32c0 .113.011.224.018.336C4.369 17.134 16.71 5 32 5c15.29 0 27.63 12.134 27.982 27.336.007-.112.018-.223.018-.336C60 16.488 47.512 4 32 4zM20.05 32.996A12 12 0 0 0 20 34a12 12 0 0 0 .025.5 12 12 0 0 1 .026-.504A12 12 0 0 0 32 45a12 12 0 0 0 11.95-10.996 12 12 0 0 1 .029.592A12 12 0 0 0 44 34a12 12 0 0 0-.05-.996A12 12 0 0 1 32 44a12 12 0 0 1-11.95-11.004z" style="fill:#fff;opacity:.2"/><path d="M63.958 45.848A16 16 0 0 1 48 61a16 16 0 0 1-15.958-14.848A16 16 0 0 0 32 47a16 16 0 0 0 16 16 16 16 0 0 0 16-16 16 16 0 0 0-.043-1.152z" style="opacity:.2"/><circle cx="48" cy="46" r="16" style="fill:#4456f3"/><g style="fill:#fff"><path d="M45 48h6V36h-6zM45 56h6v-6h-6z"/></g></svg>
